X:156
T:Tell Her I Am
R:jig
S:Session in Miltown Malbay 1991
H:See also #290
Z:id:hn-jig-156
M:6/8
K:G
d|edB GAB|~D3 GAB|~D3 cBA|AGE GBd|edB GAB|~D3 GAB|~D3 cBA|AGF G2:|
|:c|~B3 def|gfe dBG|~A3 AGA|BAG ~E3|1 ~B3 def|gfe dBG|
~A3 cBA|AGF G2:|2 ~g3 aga|bge dBG|~A3 cBA|AGF G2||

